SVG_Azure_Grouped/Compute/Windows 365.svg

<?xml version="1.0" encoding="UTF-8" standalone="no"?>
<!-- Generated by Microsoft Visio, SVG Export Windows 365.svg Page-1 -->

<svg
   xmlns:dc="http://purl.org/dc/elements/1.1/"
   xmlns:cc="http://creativecommons.org/ns#"
   xmlns:rdf="http://www.w3.org/1999/02/22-rdf-syntax-ns#"
   xmlns:svg="http://www.w3.org/2000/svg"
   xmlns="http://www.w3.org/2000/svg"
   xmlns:sodipodi="http://sodipodi.sourceforge.net/DTD/sodipodi-0.dtd"
   xmlns:inkscape="http://www.inkscape.org/namespaces/inkscape"
   width="0.78736097in"
   height="0.47236103in"
   viewBox="0 0 56.689988 34.010008"
   xml:space="preserve"
   class="st2"
   version="1.1"
   id="svg19"
   sodipodi:docname="Windows 365.svg"
   style="font-size:12px;overflow:visible;color-interpolation-filters:sRGB;fill:none;fill-rule:evenodd;stroke-linecap:square;stroke-miterlimit:3"
   inkscape:version="0.92.5 (2060ec1f9f, 2020-04-08)"><metadata
   id="metadata25"><rdf:RDF><cc:Work
       rdf:about=""><dc:format>image/svg+xml</dc:format><dc:type
         rdf:resource="http://purl.org/dc/dcmitype/StillImage" /></cc:Work></rdf:RDF></metadata><defs
   id="defs23" /><sodipodi:namedview
   pagecolor="#ffffff"
   bordercolor="#666666"
   borderopacity="1"
   objecttolerance="10"
   gridtolerance="10"
   guidetolerance="10"
   inkscape:pageopacity="0"
   inkscape:pageshadow="2"
   inkscape:window-width="640"
   inkscape:window-height="480"
   id="namedview21"
   showgrid="false"
   inkscape:zoom="2.4778439"
   inkscape:cx="37.795283"
   inkscape:cy="2.2636772"
   inkscape:window-x="0"
   inkscape:window-y="0"
   inkscape:window-maximized="0"
   inkscape:current-layer="svg19" />
	<style
   type="text/css"
   id="style2">
	<![CDATA[
		.st1 {fill:#000000;stroke:none;stroke-linecap:butt;stroke-width:0.298828}
		.st2 {fill:none;fill-rule:evenodd;font-size:12px;overflow:visible;stroke-linecap:square;stroke-miterlimit:3}
	]]>
	</style>

	<g
   id="g17"
   transform="translate(-5.66929,-3.4043)">
		<title
   id="title4">Page-1</title>
		<g
   id="group10801-1"
   transform="translate(5.66929,-34.0157)">
			<title
   id="title6">Windows 365.10801</title>
			<g
   id="group10802-2">
				<title
   id="title8">Sheet.10802</title>
				<g
   id="shape10803-3">
					<title
   id="title10">Sheet.10803</title>
					<path
   d="m 45.98,51.02 c 1.48,0 2.86,0.27 4.15,0.8 1.29,0.53 2.43,1.25 3.41,2.15 0.98,0.91 1.74,1.99 2.29,3.25 0.56,1.25 0.84,2.59 0.86,4.01 0,1.42 -0.27,2.74 -0.83,3.96 -0.55,1.22 -1.31,2.3 -2.27,3.24 -0.96,0.94 -2.09,1.67 -3.4,2.21 -1.31,0.53 -2.69,0.79 -4.13,0.79 H 14.17 c -1.95,0 -3.79,-0.35 -5.51,-1.06 C 6.95,69.66 5.44,68.7 4.15,67.47 2.86,66.25 1.85,64.81 1.11,63.14 0.37,61.48 0,59.7 0,57.83 0,55.95 0.37,54.19 1.11,52.54 1.85,50.89 2.85,49.45 4.12,48.21 5.4,46.97 6.9,45.99 8.64,45.28 c 1.73,-0.71 3.58,-1.06 5.53,-1.06 0.85,0 1.71,0.08 2.58,0.24 0.74,-1.1 1.58,-2.08 2.54,-2.95 0.96,-0.87 2.03,-1.61 3.19,-2.23 1.16,-0.62 2.38,-1.08 3.65,-1.38 1.28,-0.31 2.6,-0.46 3.99,-0.48 2.05,0 3.98,0.34 5.78,1.03 1.81,0.69 3.43,1.64 4.85,2.85 1.42,1.2 2.57,2.65 3.46,4.33 0.88,1.68 1.47,3.48 1.77,5.39 z m 0.08,17.01 c 0.98,0 1.89,-0.18 2.74,-0.53 0.85,-0.35 1.61,-0.84 2.27,-1.46 0.67,-0.62 1.18,-1.34 1.53,-2.15 0.35,-0.82 0.53,-1.7 0.55,-2.66 0,-0.94 -0.18,-1.82 -0.55,-2.63 -0.37,-0.82 -0.88,-1.54 -1.53,-2.18 -0.64,-0.64 -1.39,-1.13 -2.24,-1.46 -0.85,-0.34 -1.77,-0.52 -2.77,-0.53 h -3.54 v -1.71 c 0,-1.64 -0.32,-3.18 -0.97,-4.62 -0.65,-1.43 -1.53,-2.7 -2.66,-3.8 -1.12,-1.1 -2.43,-1.95 -3.93,-2.55 -1.49,-0.6 -3.11,-0.91 -4.84,-0.93 -1.29,0 -2.54,0.18 -3.74,0.56 -1.2,0.37 -2.3,0.89 -3.29,1.56 -1,0.68 -1.89,1.48 -2.69,2.42 -0.79,0.94 -1.41,2.01 -1.85,3.19 -1.39,-0.62 -2.85,-0.93 -4.38,-0.93 -1.47,0 -2.85,0.27 -4.12,0.8 -1.27,0.53 -2.4,1.26 -3.38,2.18 -0.98,0.92 -1.74,2.01 -2.3,3.27 -0.55,1.25 -0.83,2.57 -0.83,3.96 0,1.41 0.28,2.73 0.83,3.96 0.56,1.22 1.31,2.3 2.27,3.24 0.96,0.94 2.09,1.67 3.38,2.2 1.29,0.54 2.68,0.8 4.15,0.8 z"
   class="st1"
   id="path12"
   inkscape:connector-curvature="0"
   style="fill:#000000;stroke:none;stroke-width:0.29882801;stroke-linecap:butt" />
				</g>
			</g>
		</g>
	</g>
</svg>

<?xml version="1.0" encoding="UTF-8" standalone="no"?>
<!DOCTYPE svg PUBLIC "-//W3C//DTD SVG 1.1//EN" "http://www.w3.org/Graphics/SVG/1.1/DTD/svg11.dtd">
<!-- Generated by Microsoft Visio, SVG Export Windows 365.svg Page-1 -->
<svg xmlns="http://www.w3.org/2000/svg" xmlns:xlink="http://www.w3.org/1999/xlink" xmlns:ev="http://www.w3.org/2001/xml-events"
		width="0.944882in" height="0.992126in" viewBox="0 0 68.0315 71.4331" xml:space="preserve"
		color-interpolation-filters="sRGB" class="st2">
	<style type="text/css">
	<![CDATA[
		.st1 {fill:#000000;stroke:none;stroke-linecap:butt;stroke-width:0.298828}
		.st2 {fill:none;fill-rule:evenodd;font-size:12px;overflow:visible;stroke-linecap:square;stroke-miterlimit:3}
	]]>
	</style>

	<g>
		<title>Page-1</title>
		<g id="group10563-1" transform="translate(5.66929,-34.0157)">
			<title>Windows 365.10563</title>
			<g id="group10564-2">
				<title>Sheet.10564</title>
				<g id="shape10565-3">
					<title>Sheet.10565</title>
					<path d="M45.98 51.02 C47.46 51.02 48.84 51.29 50.13 51.82 C51.42 52.35 52.56 53.07 53.54 53.97 C54.52 54.88
								 55.28 55.96 55.83 57.22 C56.39 58.47 56.67 59.81 56.69 61.23 C56.69 62.65 56.42 63.97 55.86 65.19
								 C55.31 66.41 54.55 67.49 53.59 68.43 C52.63 69.37 51.5 70.1 50.19 70.64 C48.88 71.17 47.5 71.43
								 46.06 71.43 L14.17 71.43 C12.22 71.43 10.38 71.08 8.66 70.37 C6.95 69.66 5.44 68.7 4.15 67.47 C2.86
								 66.25 1.85 64.81 1.11 63.14 C0.37 61.48 0 59.7 0 57.83 C0 55.95 0.37 54.19 1.11 52.54 C1.85 50.89
								 2.85 49.45 4.12 48.21 C5.4 46.97 6.9 45.99 8.64 45.28 C10.37 44.57 12.22 44.22 14.17 44.22 C15.02
								 44.22 15.88 44.3 16.75 44.46 C17.49 43.36 18.33 42.38 19.29 41.51 C20.25 40.64 21.32 39.9 22.48
								 39.28 C23.64 38.66 24.86 38.2 26.13 37.9 C27.41 37.59 28.73 37.44 30.12 37.42 C32.17 37.42 34.1
								 37.76 35.9 38.45 C37.71 39.14 39.33 40.09 40.75 41.3 C42.17 42.5 43.32 43.95 44.21 45.63 C45.09
								 47.31 45.68 49.11 45.98 51.02 ZM46.06 68.03 C47.04 68.03 47.95 67.85 48.8 67.5 C49.65 67.15 50.41
								 66.66 51.07 66.04 C51.74 65.42 52.25 64.7 52.6 63.89 C52.95 63.07 53.13 62.19 53.15 61.23 C53.15
								 60.29 52.97 59.41 52.6 58.6 C52.23 57.78 51.72 57.06 51.07 56.42 C50.43 55.78 49.68 55.29 48.83
								 54.96 C47.98 54.62 47.06 54.44 46.06 54.43 L42.52 54.43 L42.52 52.72 C42.52 51.08 42.2 49.54 41.55
								 48.1 C40.9 46.67 40.02 45.4 38.89 44.3 C37.77 43.2 36.46 42.35 34.96 41.75 C33.47 41.15 31.85 40.84
								 30.12 40.82 C28.83 40.82 27.58 41 26.38 41.38 C25.18 41.75 24.08 42.27 23.09 42.94 C22.09 43.62
								 21.2 44.42 20.4 45.36 C19.61 46.3 18.99 47.37 18.55 48.55 C17.16 47.93 15.7 47.62 14.17 47.62 C12.7
								 47.62 11.32 47.89 10.05 48.42 C8.78 48.95 7.65 49.68 6.67 50.6 C5.69 51.52 4.93 52.61 4.37 53.87
								 C3.82 55.12 3.54 56.44 3.54 57.83 C3.54 59.24 3.82 60.56 4.37 61.79 C4.93 63.01 5.68 64.09 6.64
								 65.03 C7.6 65.97 8.73 66.7 10.02 67.23 C11.31 67.77 12.7 68.03 14.17 68.03 L46.06 68.03 Z"
							class="st1"/>
				</g>
			</g>
		</g>
	</g>
</svg>
